X:184
T: Yiduo xianhua shui di kai
N: C1676
O: China, Jiangxi, Ningdu
S: IV, 233]
R: Shange, Ningniuzi]
M: 2/4
L: 1/16
K: D
e2e2f2d2 | e6a2 | z2d4ed | B8
B2B2B2ef | d6e2 | BAGABdA6
G4A4 | G2AGE4 | G2E4G2 | A2GAE4
d4e4 | d2edB4 | d2B4e2d4 | d3BABd6

